X: 17321
T: Hickleton Head, The
R: hornpipe
M: 4/4
K: Gmajor
(3Bc^c|:d>gf>g e>gc>g|d>gf>g e>gc>g|d>gf>g e>gc>g|B>dG>B A2 (3Bc^c|
d>gf>g e>gc>g|d>gf>g e>gc>g|d>gf>e d>cB>A|1 G2B2G2 (3Bc^c:|2 G2B2G2 c>B||
|:A>d^c>d =c>dA>d|B>d^c>d B>dG>d|^c>Ae>A c>eA>c|d>^cd>e f>de>f|
g2 f>g e>gc>g|d>gf>g e>gc>g|1 d>gf>e d>cB>A|G2B2G2 c>B:|2 d>gf>e d>^de>f|g2G2G2||

